X:2198
T:H\"ar dansar vi p\a bredaste golv
S:N\"arke
Z:[[http://www.bluerose.karenlmyers.org/IncipitsPolskaNarke3.html|Karen Myers (#2198)]]
Z:Upptecknad 11/2001
M:3/4
L:1/8
R:Polska
O:N\"arke
K:F
c2 A>B c>d | d2 c>A F>A | c2 A>c f>d | d2 c4 :|
|: F2 F>F A>A | G2 G>G A>A | F2 F>F A>A | G2 G>G A>A | FAd2 c>A | AGF4 :|
